X:3
T:Angry Peeler, The  
B:CRE1.003 (Carraig an tSoip)
F:file ID: cre.1/003angry
S:Joseph Walsh
M:6/8
Q:160
R:jig
K:G
A|B2A G2E|D3 FED|BAB dBG|FAA AGA|
B2A G2E|D3 FED|BAB dBG|GAG G2:|
A|Bdd def|gfg dBG|Bee dBA|FAA AGA|
Bdd def|gfg dBG|Bee dBA|BGG G2:|

%%%

